X:1
T:Fredriksborg
T:Fredriksborg
T:Edvard Grieg
T:Chr. Richardt
T:Peters
T:Peters
C:Edvard Grieg
Z:Chr. Richardt
Z:Peters
%%score [ 1 2 3 4 ]
L:1/8
Q:1/4=71
M:4/4
K:D
V:1 treble-8 nm="Tenor 1" snm="T1."
V:2 treble-8 nm="Tenor 2" snm="T2."
V:3 bass nm="Baryton" snm="Bar."
V:4 bass nm="Bass" snm="B."
V:1
"^Noget langsomt"!p! d3 d d2 c2 | e2 e2 d4 | g3 g g2 f2 | !>!f3!>(! e e4!>)! |!pp! e3 e e2 ce | %5
 g2 e2 e2 d2 | e3 e e2 fa |!<(! g2 e2 e2 ^d2!<)! |!ff! g3 g B>B ce | d8 |!p! d3 d B2 d2 | %11
!<(! e6 f2!<)! |!>(!!<(! f8!>)!!<)! |] %13
V:2
 A3 A A2 A2 | B2 c2 d4 | B3 c d2 (dc) | !>!B3 c c4 | =c3 c c2 c2 | e2 =c2 B2 B2 | =c3 c c2 d2 | %7
w: 1.Skjøn- ne, sjunk- ne|Fred- riks- borg,|før vor Glæ- de, *|nu vor Sorg,|Kun- de Dan- marks|Taa- rer sluk- ke,|Skul- de at- ter|
w: 2.Kon- gen, han er|hus- vild nu;|stak- kels Kon- ge, *|hus- vild Du,|Du som gav vor|Fri- hed Taar- ne,|som gav Huus for|
w: 3.Dan- marks Stolt- hed|lagt i Gruus,|Dan- marks bed- ste *|gam- le Huus;|Gud, lad in- gen|Rø- ver- flam- me|Fol- kets e- gen|
 e2 =c2 B2 B2 | B3 B B>B BB | B8 | B3 B G2 B2 | (B4 c2) d2 | d8 |] %13
w: frem du duk- ke,|Skjøn- ne, sjunk- ne Fred- riks-|borg!|Skjøn- ne, sjunk- ne|Fred- * riks-|borg!|
w: Fol- kets Kaar- ne,|Stak- kels Kon- ge, hus- vild|Du!|Stak- kels Kon- ge|hus- * vild|Du!|
w: Ar- ne ram- me,|Læg- ge Dan- mark selv i|Gruus!|Læg- ge Dan- mark|selv * i|Gruus!|
V:3
!p! F,3 F, E,2 E,2 | G,2 G,2 F,4 | G,3 A, B,2 (B,A,) | !>!^G,3!>(! A, A,4!>)! | %4
!pp! =G,3 G, G,2 E,G, | =C2 G,2 G,2 G,2 | G,3 G, G,2 A,F, |!<(! G,2 G,2 F,2 F,2!<)! | %8
!ff! G,3 G, G,>G, G,G, | F,8 |!p! G,3 G, B,2 G,2 |!<(! G,6 A,2!<)! |!>(!!<(! A,8!>)!!<)! |] %13
V:4
 D,3 D, A,,2 A,,2 | E,2 E,2 B,,4 | E,3 E, B,,2 (B,,C,) | !>!D,3 A,, A,,4 | =C,3 C, C,2 C,2 | %5
 =C,2 E,2 G,2 G,,2 | =C,3 C, C,2 C,2 | C,2 G,,A,, B,,2 B,,2 | E,3 E, E,>E, E,E, | B,,8 | %10
 G,3 G, G,2 F,2 | E,6 D,2 | D,8 |] %13

